svg/fluentui-system-icons/ic_fluent_weather_blowing_snow_48_filled.svg

<svg width="48" height="48" viewBox="0 0 48 48" fill="none" xmlns="http://www.w3.org/2000/svg">
<path d="M22.5 6C17.8056 6 14 9.80558 14 14.5C14 15.3284 14.6716 16 15.5 16C16.3284 16 17 15.3284 17 14.5C17 11.4624 19.4624 9 22.5 9C25.5376 9 28 11.4624 28 14.5C28 17.5376 25.5376 20 22.5 20H5.5C4.67157 20 4 20.6716 4 21.5C4 22.3284 4.67157 23 5.5 23H22.5C27.1944 23 31 19.1944 31 14.5C31 9.80558 27.1944 6 22.5 6ZM37.4039 18C34.4212 18 31.8214 20.0299 31.098 22.9235L31.0448 23.1362C30.8439 23.9399 31.3325 24.7543 32.1362 24.9552C32.9399 25.1561 33.7543 24.6675 33.9552 23.8638L34.0084 23.6511C34.3979 22.093 35.7978 21 37.4039 21H37.5C39.433 21 41 22.567 41 24.5C41 26.433 39.433 28 37.5 28H5.5C4.67157 28 4 28.6716 4 29.5C4 30.3284 4.67157 31 5.5 31H30C31.6569 31 33 32.3431 33 34C33 35.6569 31.6569 37 30 37C28.7889 37 27.6966 36.2718 27.2308 35.1538L27.1346 34.9231C26.816 34.1584 25.9378 33.7968 25.1731 34.1154C24.4084 34.434 24.0468 35.3122 24.3654 36.0769L24.4615 36.3077C25.3932 38.5436 27.5778 40 30 40C33.3137 40 36 37.3137 36 34C36 32.9071 35.7078 31.8825 35.1973 31H37.5C41.0899 31 44 28.0899 44 24.5C44 20.9101 41.0899 18 37.5 18H37.4039ZM17.5 42C18.8807 42 20 40.8807 20 39.5C20 38.1193 18.8807 37 17.5 37C16.1193 37 15 38.1193 15 39.5C15 40.8807 16.1193 42 17.5 42ZM10 9.5C10 10.8807 8.88071 12 7.5 12C6.11929 12 5 10.8807 5 9.5C5 8.11929 6.11929 7 7.5 7C8.88071 7 10 8.11929 10 9.5ZM38.5 14C39.8807 14 41 12.8807 41 11.5C41 10.1193 39.8807 9 38.5 9C37.1193 9 36 10.1193 36 11.5C36 12.8807 37.1193 14 38.5 14Z" fill="#212121"/>
</svg>

<svg xmlns="http://www.w3.org/2000/svg" width="48" height="48"><path d="M22.5 6a8.5 8.5 0 0 0-8.5 8.5 1.5 1.5 0 0 0 3 0 5.5 5.5 0 1 1 5.5 5.5h-17a1.5 1.5 0 0 0 0 3h17a8.5 8.5 0 0 0 0-17Zm14.904 12a6.5 6.5 0 0 0-6.306 4.924l-.053.212a1.5 1.5 0 1 0 2.91.728l.053-.213A3.5 3.5 0 0 1 37.404 21h.096a3.5 3.5 0 1 1 0 7h-32a1.5 1.5 0 0 0 0 3H30a3 3 0 1 1-2.77 4.154l-.095-.23a1.5 1.5 0 1 0-2.77 1.153l.097.23A6 6 0 1 0 35.197 31H37.5a6.5 6.5 0 1 0 0-13h-.096ZM17.5 42a2.5 2.5 0 1 0 0-5 2.5 2.5 0 0 0 0 5ZM10 9.5a2.5 2.5 0 1 1-5 0 2.5 2.5 0 0 1 5 0ZM38.5 14a2.5 2.5 0 1 0 0-5 2.5 2.5 0 0 0 0 5Z"/></svg>
